X: 22353
T: LaaLaa Land
R: waltz
M: 3/4
K: Dmajor
[M:5/4]fg a2 ag fe dA|A2 d2 de fgfe|dAGF A2 D2 DA|d2 de dA zAde|
fg a2 ag fe dA|A2 d2 de fgfe|dAGF A2 D2 DA|d2 de dA zAde:|
d4 GA d2 Ad|ed B2 df e2 de|d2 G2 dGdAdA|de a8||

